X:67
T:Newcastle. (p)1651.PLFD1.067
M:4/4
L:1/8
Q:160
S:Playford, Dancing Master,1st Ed.,1651.
O:England;London
H:1651.
Z:Chris Partington.
K:G
B2 d2 G2 A2|G3 A G2 D2|B2 d2 G2 d2|e2 g4 fe|
d2 B2 A2 G2|E2 e4 dc|d2 B2 A3 G|G6:|
|:ef|gfed g3 B|A2 g4 A2|G3 A B2 F2|E2 e4 f2|
gfed g3 B|A2 A2 c3 d|e2 B2 A3G| G6:|
